build/img-landing/svg/cap9.svg

<svg width="59" height="67" viewBox="0 0 59 67" fill="none" xmlns="http://www.w3.org/2000/svg">
<path d="M52.9669 22.8044V18.0827C52.9669 17.0408 52.4921 16.0912 51.648 15.4713C50.8039 14.8514 49.762 14.68 48.7597 14.9833L43.3126 17.4628V10.8288V8.66578V0.0270004H0V8.66578V10.8288V56.1725V58.3355V66.9742H43.3126V58.3355V56.1725V40.8996L48.6409 43.3264L48.7728 43.3792C49.0894 43.4847 49.4191 43.5242 49.7488 43.5242C50.4215 43.5242 51.0941 43.3132 51.6612 42.8912C52.5053 42.2713 52.9801 41.3217 52.9801 40.2798V35.5581C56.04 35.0437 58.3744 32.3796 58.3744 29.1746C58.3744 25.9697 56.0268 23.3187 52.9669 22.8044ZM2.16299 2.18999H41.1496V8.66578H2.16299V2.18999ZM41.1496 64.8112H2.16299V58.3355H41.1496V64.8112ZM41.1496 56.1725H2.16299V10.8288H41.1496V18.452L36.5335 20.549H28.1321C26.3516 20.549 24.8876 21.9998 24.8876 23.7935V34.5953C24.8876 36.3758 26.3384 37.8398 28.1321 37.8398H28.3167L30.0313 46.9929C30.2687 48.5756 31.614 49.7231 33.2098 49.7231C34.1463 49.7231 35.0431 49.3142 35.6498 48.602C36.2565 47.8898 36.5335 46.9534 36.3752 45.9906L34.8321 37.853H36.5335L41.1496 39.95V56.1725ZM28.1321 35.6504V35.6636C27.5386 35.6636 27.0506 35.1756 27.0506 34.5821V23.7803C27.0506 23.1868 27.5386 22.6989 28.1321 22.6989H35.6894V35.6504H34.4232H28.1321ZM34.0012 47.1644C33.8033 47.4018 33.5132 47.5337 33.1967 47.5337C32.6691 47.5337 32.2339 47.1512 32.1547 46.6105L30.5061 37.8266H32.6295L34.2386 46.3203C34.2913 46.6237 34.199 46.927 34.0012 47.1644ZM50.8039 40.2798C50.8039 40.6227 50.6457 40.9392 50.3687 41.1502C50.1049 41.3481 49.7752 41.414 49.4587 41.3217L37.8524 36.0461V22.3164L49.4587 17.0408C49.7752 16.9616 50.1049 17.0276 50.3687 17.2122C50.6457 17.4233 50.8039 17.7398 50.8039 18.0827V40.2798ZM52.9669 33.3424V25.0069C54.8266 25.4949 56.2114 27.1699 56.2114 29.1746C56.2114 31.1794 54.8266 32.8675 52.9669 33.3424Z" fill="#E30613"/>
</svg>

<svg width="59" height="67" viewBox="0 0 59 67" fill="none" xmlns="http://www.w3.org/2000/svg"><path d="M52.967 22.804v-4.721a3.2 3.2 0 0 0-1.319-2.612 3.23 3.23 0 0 0-2.888-.488l-5.447 2.48V.027H0v66.947h43.313V40.9l5.328 2.426.132.053c.316.106.646.145.976.145.672 0 1.345-.21 1.912-.633a3.2 3.2 0 0 0 1.32-2.611v-4.722a6.479 6.479 0 0 0 5.393-6.383c0-3.205-2.347-5.856-5.407-6.37zM2.163 2.19H41.15v6.476H2.163V2.19zM41.15 64.811H2.163v-6.476H41.15v6.476zm0-8.639H2.163V10.83H41.15v7.623l-4.617 2.097h-8.4a3.25 3.25 0 0 0-3.245 3.245v10.801a3.25 3.25 0 0 0 3.244 3.245h.185l1.714 9.153a3.197 3.197 0 0 0 3.179 2.73 3.21 3.21 0 0 0 2.44-1.121 3.195 3.195 0 0 0 .725-2.611l-1.543-8.138h1.701l4.617 2.097v16.222zM28.132 35.65v.014a1.086 1.086 0 0 1-1.081-1.082V23.78c0-.593.488-1.081 1.081-1.081h7.557V35.65h-7.556zm5.87 11.514c-.199.238-.489.37-.805.37-.528 0-.963-.383-1.042-.923l-1.649-8.784h2.123l1.61 8.493c.052.304-.04.607-.238.844zm16.802-6.884c0 .343-.158.66-.435.87a1.024 1.024 0 0 1-.91.172l-11.607-5.276v-13.73l11.607-5.275c.316-.08.646-.013.91.171.277.211.435.528.435.87V40.28zm2.163-6.938v-8.335c1.86.488 3.244 2.163 3.244 4.168a4.314 4.314 0 0 1-3.244 4.167z" fill="#E30613"/></svg>
